X:1
T:48
T:Hugo Distler
T:Nikolaus Herman (d. 1561)
T:48.  O Lord, Give Us Our Daily Bread Bescher uns, Herr, das täglich Brot Harvest Blessing
T:Bärenreiter
T:Bärenreiter
T:Bärenreiter
T:Bärenreiter
T:Bärenreiter
T:Bärenreiter
T:Bärenreiter
T:Bärenreiter
C:Hugo Distler
Z:Nikolaus Herman
Z:(d. 1561)
Z:Bärenreiter
%%score [ 1 2 ( 3 4 ) ]
L:1/8
Q:1/4=108
M:4/4
K:A
V:1 treble nm="Sop. 1"
V:2 treble nm="Sop. 2"
V:3 treble nm="Alto"
V:4 treble 
V:1
 z2 | z4 z2 A2 | A2 B2 c4 | B2 (d3 c A2 | B2) B2 A4 | z2 ^c2 d2 c2 | BA ^G4 A2 | B4 z2 e2 | %8
w: |1. O|Lord give us|our dai- * *|* ly bread;|from fa- mine|and from want and|death pro-|
w: |3.  You|e- ven hear|the ra- * *|* ven's call;|now, Lord, re-|ceive our prayers as|well, for|
w: |5. O|Lord, give us|a fruit- * *|* ful year|and guard and|keep our har- vest|dear; from|
 d2 c2 B4 | G2 A4 F2 |[M:6/4] !breath!E2 c2 d2 c2 B2 A2 | (c3 d ec f2 e3 d |[M:4/4] c2 d2) B4 | %13
w: tect us through|Your own dear|Son, our Fa- ther, God, on|heav- * * * * * *|* * en's|
w: You of all|things Shep- herd|are and feed all crea- tures|ev- * * * * * *|* * 'ry-|
w: fa- mine, hun-|ger, plague, and|war pro- tect us in these|times, _ _ _ _ _ _|_ _ dear|
 (A3 F A4) || z8 | z4 z2 A2 | A2 B2 c4 | B2 (d3 c A2 | B2) B2 A4 | z2 ^c2 d2 c2 | BA ^G4 A2 | %21
w: throne. _ _||2. O|Lord, stretch out|Your ten- * *|* der hand,|make us Your|kind- ly grace to|
w: where. _ _||4.  Think|not up- on|our e- * *|* vil deeds|and sins which|have You so dis-|
w: Lord. _ _||6. For|You are our|own Fa- * *|* ther dear,|as Christ's our|el- der Bro- ther|
 B4 z2 e2 | d2 c2 B4 | G2 A4 F2 |[M:6/4] !breath!E2 c2 d2 c2 B2 A2 | (c3 d ec f2 e3 d | %26
w: know, and|nour- ish us,|Your chil- dren|all, just as You feed the|spar- * * * * * *|
w: pleased: let|shine on us|Your mer- cy|sweet that we may praise You|as _ _ _ _ _ _|
w: here; and|so in You|we trust a-|lone and raise our songs of|praise _ _ _ _ _ _|
[M:4/4] c2 d2) B4 | (A3 F A4) |] %28
w: * * row|small. _ _|
w: _ _ is|meet. _ _|
w: _ _ as|one. _ _|
V:2
 z2 | z2 E2 E2 E2 | F3 A =G2 G2 | F4 z2 F2 | =G2 F2 E2 D2 | (D3 E F2) A2 | E4 z2 A2 | %7
w: |1. O Lord give|us our dai- ly|bread; from|fa- mine and from|want _ _ and|death pro-|
w: |3.  You e- ven|hear the ra- ven's|call; now,|Lord, re- ceive our|prayers _ _ as|well, for|
w: |5. O Lord, give|us a fruit- ful|year and|guard and keep our|har- * * vest|dear; from|
 =G2 F2 F2 E2 | (F3 E D2 E2- | E2) C2 !breath!F2 F2 |[M:6/4] =G2 !breath!F4 F2 G2 F2- | %11
w: tect us through Your|own _ _ _|_ dear Son, our|Fa- ther, our Fa- ther,|
w: You of all things|Shep- * * *|* herd are and|feed all, and feed all,|
w: fa- mine, hun- ger,|plague, _ _ _|_ and war pro-|tect us, pro- tect us,|
 !breath!F2 F2 =G2 F2 A2 B2 |[M:4/4] (F^G A3 G/F/) G2 | (AB c6) || z8 | z2 E2 E2 E2 | F3 A =G2 G2 | %17
w: _ our Fa- ther, God, on|heav- * * * * en's|throne. _ _||2. O Lord, stretch|out Your ten- der|
w: _ and feed all crea- tures|ev- * * * * 'ry-|where. _ _||4.  Think not up-|on our e- vil|
w: _ pro- tect us in these|times, _ _ _ _ dear|Lord. _ _||6. For You are|our own Fa- ther|
 F4 z2 F2 | =G2 F2 E2 D2 | (D3 E F2) A2 | E4 z2 A2 | =G2 F2 F2 E2 | (F3 E D2 E2- | %23
w: hand, make|us Your kind- ly|grace _ _ to|know, and|nour- ish us, Your|chil- * * *|
w: deeds and|sins which have You|so _ _ dis-|pleased: let|shine on us Your|mer- * * *|
w: dear, as|Christ's our el- der|Bro- * * ther|here; and|so in You we|trust _ _ _|
 E2) C2 !breath!F2 F2 |[M:6/4] =G2 !breath!F4 F2 G2 F2- | !breath!F2 F2 =G2 F2 A2 B2 | %26
w: * dren all, as|You feed, as You feed,|_ just as You feed the|
w: * cy sweet that|we may, that we may,|_ that we may praise You|
w: _ a- lone and|praise You, and praise You,|_ and raise our songs of|
[M:4/4] (F^G A3 G/F/) G2 | (AB c6) |] %28
w: spar- * * * * row|small. _ _|
w: as _ _ _ _ is|meet. _ _|
w: praise _ _ _ _ as|one. _ _|
V:3
 A,2 | A,2 B,2 C2 B,2 | (D2 C3 B, A,2 | B,2) B,2 F,4 | z2 B,2 =C2 B,2 | A,=G, F,3 G, A,2- | %6
w: 1. O|Lord give us our|dai- * * *|* ly bread;|from fa- mine|and from want and death|
w: 3.  You|e- ven hear the|ra- * * *|* ven's call;|now, Lord, re-|ceive our prayers as well,|
w: 5. O|Lord, give us a|fruit- * * *|* ful year|and guard and|keep our har- vest dear;|
 !breath!A,2 E2 D2 ^C2 | B,4 D2 (C2- | CB,) A,2 B,4 | z2 C2 D2 C2 |[M:6/4] B,2 A,2 D4 D4 | A12- | %12
w: _ pro- tect us|through Your own|_ _ dear Son,|our Fa- ther,|God, on heav- en's|throne.|
w: _ for You of|all things Shep-|* * herd are|and feed all|crea- tures ev- 'ry-|where.|
w: _ from fa- mine,|hun- ger, plague,|_ _ and war|pro- tect us|in these times, dear|Lord.|
[M:4/4] A8- | A8 || z2 z2 z2 A,2 | A,2 B,2 C2 B,2 | (D2 C3 B, A,2 | B,2) B,2 F,4 | z2 B,2 =C2 B,2 | %19
w: _||2. O|Lord, stretch out Your|ten- * * *|* der hand,|make us Your|
w: _||4.  Think|not up- on our|e- * * *|* vil deeds|and sins which|
w: _||6. For|You are our own|Fa- * * *|* ther dear,|as Christ's our|
 A,=G, F,3 G, A,2- | !breath!A,2 E2 D2 ^C2 | B,4 D2 (C2- | CB,) A,2 B,4 | z2 C2 D2 C2 | %24
w: kind- ly grace to know,|_ and nour- ish|us, Your chil-|* * dren all,|just as You|
w: have You so dis- pleased:|_ let shine on|us Your mer-|* * cy sweet|that we may|
w: el- der Bro- ther here;|_ and so in|You we trust|_ _ a- lone|and raise our|
[M:6/4] B,2 A,2 D4 D4 | A12- |[M:4/4] A8- | A8 |] %28
w: feed the spar- row|small.|_||
w: praise You as is|meet.|_||
w: songs of praise as|one.|_||
V:4
 x2 | x8 | x8 | x8 | x8 | x8 | x8 | x8 | x8 | x8 |[M:6/4] x12 | A,12- |[M:4/4] A,8- | A,8 || x8 | %15
 x8 | x8 | x8 | x8 | x8 | x8 | x8 | x8 | x8 |[M:6/4] x12 | A,12- |[M:4/4] A,8- | A,8 |] %28

